X: 26
T: No_122_Quail_Dance_Song_(a).krn
N: Derived from No_122_Quail_Dance_Song_(a).krn
%%abc-version 2.0
%%abcx-abcm2ps-target-version 5.9.1 (29 Sep 2008)
%%abc-creator hum2abc beta
%%abcx-conversion-date 2019/03/15 08:38:45
%%humdrum-veritas 1256573377
%%humdrum-veritas-data 2030829019
%%linebreak <none>
%%barnumbers 0
L: 1/4
M: 2/4
K: Eb clef=bass
[K:clef=bass][M:2/4]B,3//A,//G, [I:setbarnb 2]| 
G,3/z/ | 
B,3//A,//G, | 
B,G, | 
E,A, | 
G,E, | 
E,z ||  
[M:3/4]E,2A, ||  
[M:2/4]G,E, | 
E,3/z/ :|]  
[M:3/4]E,2A, | 
G,E,E, | 
B,-B,3//A,//G, | 
B,z2 ||  
[M:2/4]B,3//A,//G, | 
B,A,/ z/ ||  
[M:5/4]E,/E,/E,A,/ z/G,3/z/ | 
E,/E,/E,A,/ z/G,3/z/ ||  
[M:2/4]E,/E,/E, | 
B,3//A,//G, | 
B,A,/ z/ | 
G,z :|]  



